X:63
T:BLWCNDL1- Blow the candle out
S:from Haverty's 100 Irish Airs, 1st series, 1858. Also in
Stanford-Petrie #634
Q:1/4=40
L:1/4
M:2/4
K:Eb
(B/4A/4)|(G3/4A/4) (G/E/)|(C3/4E/4) E/F/|G/A/ {G/}(F3/4E/4)|\
E3/2 (E/4F/4)|(G3/4A/4) (.G/.F/)|(G/c/) (c/d/)|(e/f/) (d3/4c/4)|\
c3/2E/4F/4|(G3/4A/4) (.G/.F/)|(G/c/)(.c/.d/)|\
e3/4g/4 f/4e/4d/4e/4|c3/4d/4 (e/c/)|(B3/4A/4) (G/4F/4)(E/4D/4)|\
(C3/4D/4) E/F/|(G3/4{B/}A/4) (G/4F/4)(E/4D/4)|E3|]

